X:404
T:Lincoln. (p)1698.PLFD1.404
T:Bolton. (p)1698.PLFD1.404
M:6/4
L:1/4
Q:3/4=120
S:Playford, Dancing Master,10th Ed,1698
O:England;London
H:1698.
Z:Chris Partington.
K:C
c>Bcg2e|f>ga(ge)c|B3GAB|c2Ee>dc|
d>ed(BG)B|1c3C3:|2c3C2|:G|E2G(GE)G|A2c(cA)d|
B3G3|E2G(GE)G|A/B/cAB/c/dB|c3C3:|
